X:2005
T:Boys of Portaferry, The
T:Sporting Boys, The
T:Pullet, The
R:reel
D:Planxty
Z:id:hn-reel-215
M:C|
K:G
G2BG AGBA|G2BG GEDE|G2BG A2Bc|1 dBGB c2BA:|2 dBAB G3A||
|:(3Bcd gd edgd|(3Bcd gd e2dc|(3Bcd gd edef|1 gedB c2BA:|2 gedB c2BA||
"Variations:"
G2~G2 AcBA|G2AG GEDE|1 G2BG ABcA|dBGB cAAB:|2 ~G3B ~A3B|dBAB G3A||
|:Bdgd edgd|Bdgd egdc|1 Bdgd ~e3f|gedB cAAc:|2 Bdgd egfa|gedB cAAB||
"Version 2:"
|:~G3B A2BA|~G3A GEDE|~G3B A2Bc|1 dBGB c2BA:|2 dBAB G3A||
|:(3Bcd gd edgd|Bdgd (3efe dc|1 (3Bcd gd edef|
gedB c2BA:|2 (3Bcd ef ~g3a|gedB c2BA||


